Flat Remix Dark/panel/indicator-keyboard-Ga.svg

<svg xmlns="http://www.w3.org/2000/svg" width="22" height="22" version="1.1">
 <defs>
  <style id="current-color-scheme" type="text/css">
   .ColorScheme-Text { color:#d3dae3; } .ColorScheme-Highlight { color:#5294e2; }
  </style>
 </defs>
 <rect style="opacity:0" width="22" height="22" x="0" y="0"/>
 <path style="fill:none;stroke:currentColor;stroke-width:1.99999976;stroke-linecap:round;stroke-linejoin:bevel" class="ColorScheme-Text" d="m 8.0240249,11.999735 1.9999971,0 m -0.9999984,0 -1.13e-5,2.000448 c 0,1 0,1 -1.0000025,0.999552 -0.407777,0 -1.7015092,4.48e-4 -1.9999974,4.48e-4 -1.0000024,0 -1.0000024,0 -1.0000024,-1 l 1.51e-5,-3.00045 -1.51e-5,-2.9995494 c 0,-1 0,-1 1.0000024,-1 0.2508095,0 1.6159785,-3.629e-4 1.9999974,-4.492e-4 1.0000025,4.492e-4 1.0000025,4.492e-4 1.0000025,1.0004492"/>
 <path style="fill:none;stroke:currentColor;stroke-width:1.99999976;stroke-linecap:round;stroke-linejoin:bevel" class="ColorScheme-Text" d="m 14,12.004811 4,0 m -3.9999,2.999999 0,-5.9999989 M 18,15.00481 18,9.0048111 m -4,0 -1.5e-5,-0.9995518 c 0,-1 0,-1 2.000015,-1.0004491 1.999985,-4.491e-4 1.999977,4.491e-4 1.999985,1.0004491 C 18,10 18,9.0048111 18,9.0048111"/>
</svg>

<svg xmlns="http://www.w3.org/2000/svg" width="12pt" height="12pt" version="1.1" viewBox="0 0 12 12">
 <g>
  <path style="fill:none;stroke-width:2;stroke-linecap:round;stroke-linejoin:bevel;stroke:rgb(82.745098%,85.490196%,89.019608%)" d="M 8.023438 12 L 10.023438 12 M 9.023438 12 L 9.023438 14 C 9.023438 15 9.023438 15 8.023438 15 C 7.617188 15 6.320312 15 6.023438 15 C 5.023438 15 5.023438 15 5.023438 14 L 5.023438 8 C 5.023438 7 5.023438 7 6.023438 7 C 6.273438 7 7.640625 7 8.023438 7 C 9.023438 7 9.023438 7 9.023438 8" transform="matrix(0.5,0,0,0.5,0.5,0.5)"/>
  <path style="fill:none;stroke-width:2;stroke-linecap:round;stroke-linejoin:bevel;stroke:rgb(82.745098%,85.490196%,89.019608%)" d="M 14 12.007812 L 18 12.007812 M 14 15.007812 L 14 9.007812 M 18 15.007812 L 18 9.007812 M 14 9.007812 L 14 8.007812 C 14 7.007812 14 7.007812 16 7.007812 C 18 7.007812 18 7.007812 18 8.007812 C 18 10 18 9.007812 18 9.007812" transform="matrix(0.5,0,0,0.5,0.5,0.5)"/>
 </g>
</svg>
